src/assets/flags/et.svg

<?xml version="1.0" encoding="UTF-8"?>
<svg xmlns="http://www.w3.org/2000/svg" xmlns:xlink="http://www.w3.org/1999/xlink" width="25px" height="19px" viewBox="0 0 25 19" version="1.1">
<g id="surface1">
<path style=" stroke:none;fill-rule:evenodd;fill:rgb(100%,77.64706%,12.941177%);fill-opacity:1;" d="M -6.492188 0.128906 L 31.621094 0.128906 L 31.621094 18.660156 L -6.492188 18.660156 Z M -6.492188 0.128906 "/>
<path style=" stroke:none;fill-rule:evenodd;fill:rgb(93.725491%,12.941177%,9.411765%);fill-opacity:1;" d="M -6.566406 12.742188 L 31.59375 12.742188 L 31.59375 19.050781 L -6.566406 19.050781 Z M -6.566406 12.742188 "/>
<path style=" stroke:none;fill-rule:evenodd;fill:rgb(16.078432%,54.901963%,3.137255%);fill-opacity:1;" d="M -6.492188 0 L 31.621094 0 L 31.621094 6.699219 L -6.492188 6.699219 Z M -6.492188 0 "/>
<path style=" stroke:none;fill-rule:evenodd;fill:rgb(0%,41.960785%,77.64706%);fill-opacity:1;" d="M 15.851562 9.847656 C 15.851562 7.628906 14.078125 5.832031 11.890625 5.832031 C 9.703125 5.832031 7.929688 7.628906 7.929688 9.847656 C 7.929688 12.0625 9.703125 13.859375 11.890625 13.859375 C 14.078125 13.859375 15.851562 12.0625 15.851562 9.847656 Z M 15.851562 9.847656 "/>
<path style=" stroke:none;fill-rule:evenodd;fill:rgb(100%,77.64706%,12.941177%);fill-opacity:1;" d="M 10.113281 7.003906 L 9.875 7.171875 L 10.738281 8.398438 L 10.96875 8.25 Z M 11.195312 9.90625 L 10.839844 9.652344 L 10.984375 9.179688 L 9.21875 9.207031 L 8.703125 8.808594 L 11.117188 8.78125 L 11.566406 7.40625 L 11.808594 7.964844 Z M 14.003906 7.273438 L 13.773438 7.09375 L 12.878906 8.300781 L 13.085938 8.476562 Z M 11.601562 9.191406 L 11.730469 8.773438 L 12.21875 8.773438 L 11.660156 7.070312 L 11.882812 6.457031 L 12.632812 8.777344 L 14.058594 8.796875 L 13.609375 9.195312 Z M 14.929688 11.09375 L 15.027344 10.820312 L 13.621094 10.324219 L 13.519531 10.585938 Z M 12.390625 9.367188 L 12.820312 9.367188 L 12.972656 9.835938 L 14.394531 8.773438 L 15.042969 8.796875 L 13.09375 10.234375 L 13.515625 11.621094 L 13 11.308594 Z M 11.664062 13.164062 L 11.953125 13.171875 L 11.964844 11.664062 L 11.695312 11.644531 Z M 12.472656 10.175781 L 12.613281 10.589844 L 12.21875 10.886719 L 13.664062 11.917969 L 13.847656 12.542969 L 11.882812 11.128906 L 10.722656 11.972656 L 10.851562 11.378906 L 12.46875 10.175781 Z M 8.679688 10.660156 L 8.761719 10.9375 L 10.183594 10.484375 L 10.109375 10.21875 Z M 11.734375 10.511719 L 11.390625 10.777344 L 10.992188 10.488281 L 10.472656 12.199219 L 9.941406 12.574219 L 10.660156 10.238281 L 9.503906 9.382812 L 10.105469 9.324219 Z M 11.734375 10.511719 "/>
</g>
</svg>

<svg xmlns="http://www.w3.org/2000/svg" width="25" height="19" viewBox="0 0 25 19"><path d="M-6.492.129H31.62V18.66H-6.492Zm0 0" style="stroke:none;fill-rule:evenodd;fill:#ffc621;fill-opacity:1"/><path d="M-6.566 12.742h38.16v6.309h-38.16Zm0 0" style="stroke:none;fill-rule:evenodd;fill:#ef2118;fill-opacity:1"/><path d="M-6.492 0H31.62v6.7H-6.492Zm0 0" style="stroke:none;fill-rule:evenodd;fill:#298c08;fill-opacity:1"/><path d="M15.852 9.848c0-2.22-1.774-4.016-3.961-4.016-2.188 0-3.961 1.797-3.961 4.016 0 2.214 1.773 4.011 3.96 4.011s3.962-1.796 3.962-4.011m0 0" style="stroke:none;fill-rule:evenodd;fill:#006bc6;fill-opacity:1"/><path d="m10.113 7.004-.238.168.863 1.226.23-.148Zm1.082 2.902-.355-.254.144-.472-1.765.027-.516-.398 2.414-.028.45-1.375.242.559Zm2.809-2.633-.23-.18-.895 1.208.207.176Zm-2.402 1.918.128-.418h.489L11.66 7.07l.223-.613.75 2.32 1.426.02-.45.398Zm3.328 1.903.097-.274-1.406-.496-.101.262Zm-2.54-1.727h.43l.153.469 1.422-1.063.648.024-1.95 1.437.423 1.387L13 11.31Zm-.726 3.797.29.008.01-1.508-.269-.02Zm.809-2.988.14.414-.394.297 1.445 1.031.184.625-1.965-1.414-1.16.844.129-.594 1.617-1.203Zm-3.793.484.082.277 1.422-.453-.075-.265Zm3.054-.148-.343.265-.399-.289-.52 1.711-.53.375.718-2.336-1.156-.855.601-.059Zm0 0" style="stroke:none;fill-rule:evenodd;fill:#ffc621;fill-opacity:1"/></svg>
